X: 42
T: the SPIRIT OF SCOTLAND
C: Andrew Rankine
R: march, shottish, strathspey
B: "The Complete Andrew Rankine Collection of Scottish Country Dance Tunes" p.46
Z: 2017 John Chambers <jc:trillian.mit.edu>
M: C
L: 1/4
K: A
E |:\
"A"A4 | E2 Ac | e4 | c2 "A7"e2 |\
"D"f3 e | f2 a2 | "A"e4 | c2 "F#7"e2 |\
"Bm"d3 c | d2 "E7"e2 | "A"c4 | A2 c2 |
[1 "B7"B3 F | B2 A2 | "E7"G3 F | G2 E2 :|\
[2 "B7"B3 F | "E7"A2 G2 | "A"A4- | A2 "A7"A>=G |]\
"D"F2 A2 | d2 f2 | "A"e4 | c2 e2 |
"E7"E3 G | B2 d2 | "C"c4 | A2- "A7"A>=G |\
"D"F2 A2 | d2 f2 | "A"e4 | c2 e2 |\
"B7"^d3 B | ^d2 a2 | "E7"g3 f | ed cB |
"A"A4 | E2 Ac | e4 | c2 "A7"e2 |\
"D"f3 e | f2 a2 | "A"e4 | c2 "F#7"e2 |\
"Bm"d3 c | d2 "E7"e2 | "A"c4 | A2 "F#m"c2 |
"B7"B3 F | "E7"A2 G2 | "A"A4- | A3 A |]\
[K:D] |:\
"D"d4 | A2 df | a4 | f2 "D7"a2 |\
"G"b3 a | b2 d'2 | "D"a4 | f2 "B7"a2 |
"Em"g3 f | g2 "A7"a2 | "D"f4 | "Bm"d2 f2 |\
[1 "E7"e3 B | e2 d2 | "A"c3 B | c2 A2 :|\
[2 "E7"e3 B | d2 "A7"c2 | "D"d4 | d2- "D7"d=c |]
"G"B2 d2 | g2 b2 | "D"a4 | f2 a2 |\
"A"A3 c | e2 "A7"g2 | "D"f4 | d2- "D7"d>=c |\
"G"B2 d2 | g2 b2 | "D"a4 | f2 "B7"a2 |
"E7"^g3 e | ^g2 d'2 | "A"c'3 b | ag fe |\
"D"d4 | A2 df | a4 | f2 "D7"a2 |\
"G"b3 a | b2 d'2 | "D"a4 | f2 "B7"a2 |
"Em"g3 f | g2 "A7"a2 | "D"f4 | "Bm"d2 f2 |\
"E7"e3 B | d2 "A7"c2 | "D"d4 | d3 "D7"F |\
"G"G2 B2 | d2 "Fdim"cB | "D"A2 d2 | F2 dA |
"A7"c3 d | eA Bc | "D"d3 e | fd "D7"AF |\
"G"G2 B2 | d2 "Fdim"cB | "D"A2 d2 | F2 dA |\
"A7"c3 d | eA Bc | "D"d4- | d4 |]
